packages/foundations/assets/icons/functional/images/audio & video/skip_backward_48.svg

<svg width="48" height="48" viewBox="0 0 48 48" fill="none" xmlns="http://www.w3.org/2000/svg">
<g clip-path="url(#clip0_2202_546)">
<path fill-rule="evenodd" clip-rule="evenodd" d="M39 12.333V35.667C39 37.49 37.542 39 35.719 39C35.0355 38.9947 34.3674 38.7961 33.792 38.427L14.907 26.708C14.4709 26.4041 14.115 25.999 13.87 25.5273C13.6249 25.0556 13.4979 24.5315 13.5 24C13.5 22.906 14.021 21.917 14.907 21.292L33.792 9.573C34.3674 9.20394 35.0355 9.00528 35.719 9C37.542 9 39 10.51 39 12.333ZM34.866 11.26C25.037 17.31 18.764 21.202 16.047 22.937C15.7 23.15 15.5 23.611 15.5 24C15.5 24.437 15.7 24.82 16.06 25.074C22.3738 28.89 28.6432 32.7789 34.867 36.74C35.23 36.94 35.484 37 35.719 37C36.418 37 37 36.405 37 35.667C37.003 27.889 37.003 20.111 37 12.333C37 11.52 36.374 11 35.719 11C35.437 11 35.13 11.092 34.866 11.26ZM11 10V38C11 38.2652 10.8946 38.5196 10.7071 38.7071C10.5196 38.8946 10.2652 39 10 39C9.73478 39 9.48043 38.8946 9.29289 38.7071C9.10536 38.5196 9 38.2652 9 38V10C9 9.73478 9.10536 9.48043 9.29289 9.29289C9.48043 9.10536 9.73478 9 10 9C10.2652 9 10.5196 9.10536 10.7071 9.29289C10.8946 9.48043 11 9.73478 11 10Z" fill="#1A1C1F"/>
</g>
<defs>
<clipPath id="clip0_2202_546">
<rect width="48" height="48" fill="white"/>
</clipPath>
</defs>
</svg>

<svg xmlns="http://www.w3.org/2000/svg" width="48" height="48" fill="none"><g clip-path="url(#a)"><path fill="#1A1C1F" fill-rule="evenodd" d="M39 12.333v23.334C39 37.49 37.542 39 35.719 39a3.6 3.6 0 0 1-1.927-.573L14.907 26.708A3.28 3.28 0 0 1 13.5 24c0-1.094.521-2.083 1.407-2.708L33.792 9.573A3.6 3.6 0 0 1 35.719 9C37.542 9 39 10.51 39 12.333m-4.134-1.073q-14.744 9.075-18.819 11.677c-.347.213-.547.674-.547 1.063 0 .437.2.82.56 1.074A956 956 0 0 1 34.867 36.74c.363.2.617.26.852.26.699 0 1.281-.595 1.281-1.333Q37.005 24 37 12.333C37 11.52 36.374 11 35.719 11c-.282 0-.589.092-.853.26M11 10v28a1 1 0 0 1-2 0V10a1 1 0 0 1 2 0" clip-rule="evenodd"/></g><defs><clipPath id="a"><path fill="#fff" d="M0 0h48v48H0z"/></clipPath></defs></svg>
